icons/svg/sport/fitness_centre.svg

<?xml version="1.0" encoding="UTF-8" standalone="no"?>
<!-- Created with Inkscape (http://www.inkscape.org/) -->

<svg
   xmlns:dc="http://purl.org/dc/elements/1.1/"
   xmlns:cc="http://creativecommons.org/ns#"
   xmlns:rdf="http://www.w3.org/1999/02/22-rdf-syntax-ns#"
   xmlns:svg="http://www.w3.org/2000/svg"
   xmlns="http://www.w3.org/2000/svg"
   xmlns:sodipodi="http://sodipodi.sourceforge.net/DTD/sodipodi-0.dtd"
   xmlns:inkscape="http://www.inkscape.org/namespaces/inkscape"
   version="1.0"
   width="580"
   height="580"
   id="svg2"
   sodipodi:version="0.32"
   inkscape:version="0.91 r13725"
   sodipodi:docname="fitness_centre.svg"
   inkscape:output_extension="org.inkscape.output.svg.inkscape">
  <metadata
     id="metadata2975">
    <rdf:RDF>
      <cc:Work
         rdf:about="">
        <dc:format>image/svg+xml</dc:format>
        <dc:type
           rdf:resource="http://purl.org/dc/dcmitype/StillImage" />
        <cc:license
           rdf:resource="http://web.resource.org/cc/PublicDomain" />
        <dc:language>en</dc:language>
      </cc:Work>
    </rdf:RDF>
  </metadata>
  <sodipodi:namedview
     inkscape:window-height="1006"
     inkscape:window-width="1920"
     inkscape:pageshadow="2"
     inkscape:pageopacity="0.0"
     guidetolerance="10.0"
     gridtolerance="10.0"
     objecttolerance="10.0"
     borderopacity="1.0"
     bordercolor="#666666"
     pagecolor="#ffffff"
     id="base"
     inkscape:zoom="0.35355339"
     inkscape:cx="231.94175"
     inkscape:cy="422.84365"
     inkscape:window-x="1920"
     inkscape:window-y="0"
     inkscape:current-layer="svg2"
     showgrid="false"
     inkscape:window-maximized="1" />
  <defs
     id="defs4">
    <inkscape:perspective
       sodipodi:type="inkscape:persp3d"
       inkscape:vp_x="0 : 290 : 1"
       inkscape:vp_y="0 : 1000 : 0"
       inkscape:vp_z="580 : 290 : 1"
       inkscape:persp3d-origin="290 : 193.33333 : 1"
       id="perspective2441" />
    <inkscape:perspective
       id="perspective3452"
       inkscape:persp3d-origin="30 : 20 : 1"
       inkscape:vp_z="60 : 30 : 1"
       inkscape:vp_y="0 : 1000 : 0"
       inkscape:vp_x="0 : 30 : 1"
       sodipodi:type="inkscape:persp3d" />
    <symbol
       viewBox="244.5 110 489 219.9"
       id="symbol-university">
      <path
         id="path4460"
         d="M79,43l57,119c0,0,21-96,104-96s124,106,124,106l43-133l82-17L0,17L79,43z" />
      <path
         id="path4462"
         d="M94,176l-21,39"
         stroke-width="20"
         stroke="#000000"
         fill="none" />
      <path
         id="path4464"
         d="M300,19c0,10.5-22.6,19-50.5,19S199,29.5,199,19s22.6-19,50.5-19S300,8.5,300,19z" />
      <path
         id="path4466"
         d="M112,216l-16-38L64,88c0,0-9-8-4-35s16-24,16-24"
         stroke-width="20"
         stroke="#000000"
         ill="none" />
    </symbol>
    <inkscape:perspective
       id="perspective4471"
       inkscape:persp3d-origin="372.04724 : 350.78739 : 1"
       inkscape:vp_z="744.09448 : 526.18109 : 1"
       inkscape:vp_y="0 : 1000 : 0"
       inkscape:vp_x="0 : 526.18109 : 1"
       sodipodi:type="inkscape:persp3d" />
    <inkscape:perspective
       id="perspective4668"
       inkscape:persp3d-origin="6 : 4 : 1"
       inkscape:vp_z="12 : 6 : 1"
       inkscape:vp_y="0 : 1000 : 0"
       inkscape:vp_x="0 : 6 : 1"
       sodipodi:type="inkscape:persp3d" />
  </defs>
  <g
     id="g1327">
    <path
       d="M 66.275,1.768 C 24.94,1.768 1.704,23.139 1.704,66.804 L 1.704,516.927 C 1.704,557.771 22.599,579.156 63.896,579.156 L 515.92,579.156 C 557.227,579.156 578.149,558.841 578.149,516.927 L 578.149,66.804 C 578.149,24.203 557.227,1.768 514.628,1.768 C 514.624,1.768 66.133,1.625 66.275,1.768 z "
       style="fill:#111;stroke:#eee;stroke-width:3.40799999"
       id="path1329" />
  </g>
  <path
     style="fill:#ffffff"
     d="m 430.25391,390.17969 c -6.35724,-0.002 -11.62705,0.73795 -12.61914,0.88672 l -0.31055,0.0488 -291.37305,50.16797 c -25.58736,4.69765 -44.105467,26.94119 -44.105467,52.90625 0,29.65133 24.125057,53.77735 53.777347,53.77735 l 294.63086,0 c 43.50181,0 78.89257,-35.39078 78.89257,-78.89258 0,-43.50181 -35.39076,-78.89453 -78.89257,-78.89453 z m -0.002,30.02989 c 26.9861,4e-5 48.86265,21.87659 48.86269,48.86269 -5e-5,26.9861 -21.87659,48.86264 -48.86269,48.86268 -26.98609,-5e-5 -48.86263,-21.87659 -48.86268,-48.86268 4e-5,-26.9861 21.87658,-48.86264 48.86268,-48.86269 z m -294.6289,53.19434 c 11.47856,-2.5e-4 20.78383,9.30502 20.78357,20.78358 2.6e-4,11.47856 -9.30501,20.78383 -20.78357,20.78358 -11.47856,2.6e-4 -20.78384,-9.30502 -20.78358,-20.78358 -2.6e-4,-11.47856 9.30502,-20.78384 20.78358,-20.78358 z"
     id="path2535"
     inkscape:connector-curvature="0"
     sodipodi:nodetypes="ccccsssscsssssccccc" />
  <path
     style="fill:#ffffff"
     id="path2537"
     inkscape:connector-curvature="0"
     d="m 278.92985,119.84808 c -3.60221,-9.06783 -13.82344,-13.52205 -22.90865,-10.03963 l -43.98192,17.46622 c -0.92832,0.2048 -1.85375,0.46368 -2.76661,0.8269 -4.62907,1.83927 -8.05063,5.40573 -9.8358,9.66288 -1.86824,4.21851 -2.11361,9.1538 -0.27435,13.77997 0.36226,0.9119 0.80758,1.76199 1.29638,2.57729 l 17.48747,43.97611 c 3.70266,8.99827 13.95674,13.37424 23.0236,9.77107 9.06687,-3.60317 13.52205,-13.82536 10.03769,-22.90865 L 239.0486,154.8433 269.15975,142.87072 c 8.99731,-3.70074 13.37328,-13.95481 9.7701,-23.02264 l 0,0 z" />
  <path
     style="fill:#ffffff"
     id="path2539"
     inkscape:connector-curvature="0"
     d="m 355.71224,312.37157 c -0.56415,-0.98145 -1.21716,-1.87693 -1.90977,-2.72797 l -27.28754,-47.29433 c -5.7245,-9.65708 -18.16173,-12.94437 -27.91252,-7.32226 -9.75175,5.62114 -13.13565,18.03422 -7.64588,27.82559 l 18.66792,32.39282 -32.38316,18.68242 c -9.65613,5.72643 -12.94439,18.16173 -7.32131,27.91348 5.62212,9.75272 18.03326,13.13758 27.82559,7.64492 l 47.31171,-27.26531 c 1.02493,-0.38833 2.03535,-0.83752 3.01682,-1.4036 4.97489,-2.86997 8.28826,-7.5087 9.61844,-12.66326 1.43257,-5.1285 0.88969,-10.80373 -1.9803,-15.7825 l 0,0 z" />
  <circle
     style="fill:#ffffff"
     id="circle2541"
     cx="344.20682"
     cy="61.538483"
     r="42.503937" />
  <path
     style="fill:#ffffff"
     id="path2543"
     inkscape:connector-curvature="0"
     d="m 405.18779,155.60837 c -4.60395,-8.22161 -14.95753,-11.18819 -23.21391,-6.69436 l -27.31168,15.28306 -19.84837,-35.44635 c -1.3978,-6.17949 -5.60955,-11.63255 -11.87502,-14.33445 -10.33522,-4.45809 -22.30877,0.24633 -26.87795,10.5004 l -107.2239,248.59199 c -4.49189,10.41636 0.30912,22.49907 10.72549,26.99096 10.41539,4.48996 22.49907,-0.30912 26.99096,-10.72645 l 93.5444,-216.93814 11.60357,20.73806 c 0.31299,0.86166 0.6791,1.71271 1.14181,2.54057 2.35317,4.19919 6.20364,7.02185 10.50717,8.18877 4.27744,1.25096 9.03401,0.85684 13.22742,-1.49247 0.82593,-0.46272 1.58327,-0.99788 2.30197,-1.56878 l 39.88318,-22.34355 c 8.1453,-4.68895 11.02977,-15.0657 6.42486,-23.28926 l 0,0 z" />
</svg>

<svg width="580" height="580" viewBox="0 0 580 580" fill="none" xmlns="http://www.w3.org/2000/svg">
<g clip-path="url(#clip0)">
<path d="M66.2751 1.76815C24.9401 1.76815 1.7041 23.1391 1.7041 66.8041V516.927C1.7041 557.771 22.5991 579.156 63.8961 579.156H515.92C557.227 579.156 578.149 558.841 578.149 516.927V66.8041C578.149 24.2031 557.227 1.76815 514.628 1.76815C514.624 1.76815 66.1331 1.62515 66.2751 1.76815Z" fill="#111111" stroke="#EEEEEE" stroke-width="3.408"/>
<path d="M430.254 390.18C423.897 390.178 418.627 390.918 417.635 391.066L417.324 391.115L125.951 441.283C100.364 445.981 81.8457 468.224 81.8457 494.189C81.8457 523.841 105.971 547.967 135.623 547.967H430.254C473.756 547.967 509.146 512.576 509.146 469.074C509.146 425.572 473.756 390.18 430.254 390.18V390.18ZM430.252 420.21C457.238 420.21 479.115 442.086 479.115 469.072C479.115 496.058 457.238 517.935 430.252 517.935C403.266 517.935 381.389 496.058 381.389 469.072C381.389 442.086 403.266 420.21 430.252 420.21V420.21ZM135.623 473.404C147.102 473.404 156.407 482.709 156.407 494.188C156.407 505.666 147.102 514.971 135.623 514.971C124.144 514.971 114.839 505.666 114.839 494.188C114.839 482.709 124.144 473.404 135.623 473.404V473.404Z" fill="white"/>
<path d="M278.93 119.848C275.328 110.78 265.106 106.326 256.021 109.808L212.039 127.274C211.111 127.479 210.186 127.738 209.273 128.101C204.644 129.941 201.222 133.507 199.437 137.764C197.569 141.983 197.323 146.918 199.163 151.544C199.525 152.456 199.97 153.306 200.459 154.122L217.946 198.098C221.649 207.096 231.903 211.472 240.97 207.869C250.037 204.266 254.492 194.043 251.008 184.96L239.049 154.843L269.16 142.871C278.157 139.17 282.533 128.916 278.93 119.848V119.848Z" fill="white"/>
<path d="M355.712 312.371C355.148 311.39 354.495 310.494 353.803 309.643L326.515 262.349C320.79 252.692 308.353 249.405 298.602 255.027C288.851 260.648 285.467 273.061 290.957 282.852L309.625 315.245L277.241 333.928C267.585 339.654 264.297 352.089 269.92 361.841C275.542 371.594 287.953 374.979 297.746 369.486L345.057 342.221C346.082 341.832 347.093 341.383 348.074 340.817C353.049 337.947 356.362 333.308 357.693 328.154C359.125 323.025 358.582 317.35 355.712 312.371V312.371Z" fill="white"/>
<path d="M344.207 104.043C367.681 104.043 386.711 85.0129 386.711 61.5386C386.711 38.0643 367.681 19.0347 344.207 19.0347C320.733 19.0347 301.703 38.0643 301.703 61.5386C301.703 85.0129 320.733 104.043 344.207 104.043Z" fill="white"/>
<path d="M405.188 155.609C400.584 147.387 390.23 144.42 381.974 148.914L354.662 164.197L334.814 128.751C333.416 122.571 329.204 117.118 322.939 114.416C312.604 109.958 300.63 114.663 296.061 124.917L188.837 373.509C184.345 383.925 189.146 396.008 199.563 400.5C209.978 404.99 222.062 400.191 226.554 389.773L320.098 172.835L331.701 193.573C332.014 194.435 332.381 195.286 332.843 196.114C335.196 200.313 339.047 203.136 343.35 204.303C347.628 205.554 352.384 205.159 356.578 202.81C357.404 202.347 358.161 201.812 358.88 201.241L398.763 178.898C406.908 174.209 409.793 163.832 405.188 155.609V155.609Z" fill="white"/>
</g>
<defs>
<clipPath id="clip0">
<path d="M0 0H580V580H0V0Z" fill="white"/>
</clipPath>
</defs>
</svg>
